src/assets/svg/pushpin.svg

<svg xmlns="http://www.w3.org/2000/svg" viewBox="0 0 24 24" fill="currentColor"><path d="M22.3126 10.1753L20.8984 11.5895L20.1913 10.8824L15.9486 15.125L15.2415 18.6606L13.8273 20.0748L9.58466 15.8321L4.63492 20.7819L3.2207 19.3677L8.17045 14.4179L3.92781 10.1753L5.34202 8.76107L8.87756 8.05396L13.1202 3.81132L12.4131 3.10422L13.8273 1.69L22.3126 10.1753Z"></path></svg>

<svg xmlns="http://www.w3.org/2000/svg" fill="currentColor" viewBox="0 0 24 24"><path d="m22.313 10.175-1.415 1.414-.707-.707-4.242 4.243-.707 3.536-1.415 1.414-4.242-4.243-4.95 4.95-1.414-1.414 4.95-4.95-4.243-4.243 1.414-1.414 3.536-.707 4.242-4.243-.707-.707 1.414-1.414z"/></svg>
